source/img/icon-ship.svg

<svg width="27" height="32" viewBox="0 0 27 32" fill="none" xmlns="http://www.w3.org/2000/svg">
<path d="M4.40549 16.3962L13.2165 9.93576C13.4162 9.8063 13.6711 9.8063 13.8708 9.93576L22.7254 16.3962V8.68818C22.7739 7.6312 21.9743 6.7343 20.9396 6.68484C20.9242 6.68407 20.9089 6.68356 20.8934 6.68322H6.23749C5.20189 6.70667 4.38094 7.58319 4.4039 8.6411C4.40423 8.6568 4.40473 8.67249 4.40549 8.68818V16.3962Z" fill="#011C40"/>
<path d="M15.7464 0H11.3845V5.34662H15.7464V0Z" fill="#011C40"/>
<path d="M24.2956 30.1638L27 21.03L23.2052 18.3122L22.9434 18.1785L14.0016 11.8072V30.6094H13.5217L12.6929 30.5649V11.8072L0 21.03L2.79163 30.1193L4.4039 31.9904C4.4039 31.9904 5.7624 31.9904 7.15817 31.9904C7.15817 31.9904 12.2467 31.997 13.5218 31.9904C14.8198 32.012 17.1251 31.9904 17.1251 31.9904H22.8127L24.2956 30.1638Z" fill="#011C40"/>
</svg>

<svg width="27" height="32" viewBox="0 0 27 32" fill="none" xmlns="http://www.w3.org/2000/svg"><path d="M4.405 16.396l8.811-6.46a.6.6 0 01.655 0l8.854 6.46V8.688c.049-1.057-.75-1.954-1.785-2.003l-.047-.002H6.237c-1.035.024-1.856.9-1.833 1.958l.001.047v7.708zM15.746 0h-4.362v5.347h4.362V0z" fill="#011C40"/><path d="M24.296 30.164L27 21.03l-3.795-2.718-.262-.134-8.941-6.37v18.801h-.48l-.83-.044V11.807L0 21.03l2.792 9.09 1.612 1.87h2.754s5.089.007 6.364 0c1.298.022 3.603 0 3.603 0h5.688l1.483-1.826z" fill="#011C40"/></svg>
